data/icons/network-cellular-disabled-symbolic.svg

<?xml version="1.0" encoding="UTF-8" standalone="no"?>
<svg
   xmlns:dc="http://purl.org/dc/elements/1.1/"
   xmlns:cc="http://creativecommons.org/ns#"
   xmlns:rdf="http://www.w3.org/1999/02/22-rdf-syntax-ns#"
   xmlns:svg="http://www.w3.org/2000/svg"
   xmlns="http://www.w3.org/2000/svg"
   xmlns:sodipodi="http://sodipodi.sourceforge.net/DTD/sodipodi-0.dtd"
   xmlns:inkscape="http://www.inkscape.org/namespaces/inkscape"
   width="16"
   height="16"
   version="1.1"
   id="svg6"
   sodipodi:docname="network-cellular-disabled-symbolic.svg"
   inkscape:version="0.92.4 5da689c313, 2019-01-14">
  <metadata
     id="metadata12">
    <rdf:RDF>
      <cc:Work
         rdf:about="">
        <dc:format>image/svg+xml</dc:format>
        <dc:type
           rdf:resource="http://purl.org/dc/dcmitype/StillImage" />
      </cc:Work>
    </rdf:RDF>
  </metadata>
  <defs
     id="defs10" />
  <sodipodi:namedview
     pagecolor="#ffffff"
     bordercolor="#666666"
     borderopacity="1"
     objecttolerance="10"
     gridtolerance="10"
     guidetolerance="10"
     inkscape:pageopacity="0"
     inkscape:pageshadow="2"
     inkscape:window-width="1745"
     inkscape:window-height="1370"
     id="namedview8"
     showgrid="false"
     inkscape:zoom="41.7193"
     inkscape:cx="8.3785054"
     inkscape:cy="6.5913603"
     inkscape:window-x="491"
     inkscape:window-y="209"
     inkscape:window-maximized="0"
     inkscape:current-layer="svg6" />
  <g
     font-weight="400"
     id="g4"
     white-space="normal"
     font-family="sans-serif"
     fill-rule="evenodd"
     fill="#474747"
     color="#000">
    <path
       style="line-height:normal;font-variant-ligatures:normal;font-variant-position:normal;font-variant-caps:normal;font-variant-numeric:normal;font-variant-alternates:normal;font-feature-settings:normal;text-indent:0;text-align:start;text-decoration-line:none;text-decoration-style:solid;text-decoration-color:#000;text-transform:none;text-orientation:mixed;shape-padding:0;isolation:auto;mix-blend-mode:normal;opacity:0.35"
       d="M 12 1 L 12 9.0957031 L 15 12.064453 L 15 1 L 12 1 z M 8 4 L 8 5.1367188 L 11 8.1054688 L 11 4 L 8 4 z M 4 7 L 4 15 L 7 15 L 7 9.6679688 L 4.2636719 7 L 4 7 z M 0 10 L 0 15 L 3 15 L 3 10 L 0 10 z M 8 10.642578 L 8 15 L 11 15 L 11 13.566406 L 8 10.642578 z M 12 14.542969 L 12 15 L 12.46875 15 L 12 14.542969 z "
       id="path2" />
  </g>
  <path
     inkscape:connector-curvature="0"
     d="M 1.5977966,0.46949996 0.53679658,1.5305 l 14.00000042,14 1.062,-1.062 z"
     id="path4" />
</svg>

<svg xmlns="http://www.w3.org/2000/svg" width="16" height="16"><path fill="#474747" fill-rule="evenodd" d="M12 1v8.096l3 2.968V1zM8 4v1.137l3 2.968V4zM4 7v8h3V9.668L4.264 7zm-4 3v5h3v-5zm8 .643V15h3v-1.434zm4 3.9V15h.469z" color="#000" font-family="sans-serif" font-weight="400" style="line-height:normal;font-variant-ligatures:normal;font-variant-position:normal;font-variant-caps:normal;font-variant-numeric:normal;font-variant-alternates:normal;font-feature-settings:normal;text-indent:0;text-align:start;text-decoration-line:none;text-decoration-style:solid;text-decoration-color:#000;text-transform:none;text-orientation:mixed;shape-padding:0;isolation:auto;mix-blend-mode:normal;opacity:.35"/><path d="M1.598.47.537 1.53l14 14 1.062-1.061z"/></svg>
